color/neu.svg

<!-- Generated by IcoMoon.io -->
<svg version="1.1" xmlns="http://www.w3.org/2000/svg" width="32" height="32" viewBox="0 0 32 32">
<title>neu</title>
<path fill="#b3ba00" d="M32 16c0 8.837-7.163 16-16 16s-16-7.163-16-16c0-8.837 7.163-16 16-16s16 7.163 16 16z"></path>
<path fill="#fff" d="M13.13 10.664l-0.13 0.079 6 9.257v-9.265l-2.996-1.735zM13 21.165l3.136 1.835 2.864-1.672-6-9.328zM10 12.356v7.288l2 1.356v-10zM20 21l2-1.387v-7.226l-2-1.387z"></path>
<path fill="#fff" d="M16 4c-6.625 0-12 5.375-12 12s5.375 12 12 12 12-5.375 12-12-5.375-12-12-12zM15.95 23.62l-6.476-3.84v-7.668l6.477-3.83 6.476 3.83v7.669l-6.476 3.838z"></path>
</svg>

<svg width="32" height="32" viewBox="0 0 32 32" xmlns="http://www.w3.org/2000/svg"><g fill="none"><circle cx="16" cy="16" r="16" fill="#B3BA00"/><g fill="#FFF"><path d="M13.13 10.664l-.13.079L19 20v-9.265L16.004 9zM13 21.165L16.136 23 19 21.328 13 12zm-3-8.809v7.288L12 21V11zM20 21l2-1.387v-7.226L20 11z"/><path d="M16 4C9.375 4 4 9.375 4 16s5.375 12 12 12 12-5.375 12-12S22.625 4 16 4zm-.05 19.62l-6.476-3.84v-7.668l6.477-3.83 6.476 3.83v7.669l-6.476 3.838z"/></g></g></svg>
